X:17
T:Mrs. O'Sullivan's Jig 
F:file ID mvbt2/017mrs_os
D:"Live At Patrick Street"
Z:bill@capeirish.com
Q:160
M:6/8
L:1/8
R:jig
K:Am % source key Bm
C|EGG GED|EGG c2 B|ABA AGA|cde e2 d|
cde g2 a|ged c2 d|eaa efd|cAG A2 :|
d|egg ged|egg g2 d|eaa aga|bag a2 d|
egg g2 a|ged c2 d|eaa efd|cAG A2 :|

